src/icons/turborepo.svg

<svg width="24" height="24" viewBox="0 0 24 24" fill="none" xmlns="http://www.w3.org/2000/svg">
<path d="M10.386 1.507C7.986 1.424 5.586 2.173 3.6 3.756L4.924 4.506C6.497 3.339 8.483 2.84 10.386 2.923V1.507Z" fill="#D81B60"/>
<path d="M17.42 4.67C15.766 2.923 13.614 1.84 11.297 1.59V3.006C13.2466 3.32721 15.0433 4.2606 16.427 5.671L17.421 4.671L17.42 4.67Z" fill="#D81B60"/>
<path d="M20.4 11.5C20.317 9.335 19.49 7.17 18.083 5.338L17.09 6.338C18.248 7.92 18.91 9.668 18.993 11.501L20.4 11.5Z" fill="#D81B60"/>
<path d="M18.083 18.663C19.49 16.831 20.317 14.665 20.4 12.5H18.993C18.911 14.332 18.248 16.08 17.09 17.663L18.083 18.663Z" fill="#D81B60"/>
<path d="M11.297 22.41C13.531 22.16 15.766 21.078 17.421 19.329L16.428 18.329C15.021 19.829 13.2 20.745 11.297 20.995V22.41Z" fill="#D81B60"/>
<path d="M3.6 20.245C5.52001 21.7824 7.92784 22.5801 10.386 22.493V21.078C8.483 21.161 6.579 20.661 4.924 19.495L3.6 20.245Z" fill="#D81B60"/>
<path d="M10.008 6.212C10.8464 6.20348 11.6785 6.35802 12.458 6.667C13.1769 6.94161 13.8318 7.36094 14.382 7.899C14.9326 8.44031 15.3686 9.08686 15.664 9.80017C15.9595 10.5135 16.1085 11.2789 16.102 12.051C16.102 12.873 15.952 13.641 15.65 14.354C15.3474 15.0545 14.9097 15.6885 14.3618 16.2195C13.8139 16.7506 13.1666 17.1684 12.457 17.449C11.6757 17.7489 10.8448 17.8982 10.008 17.889C9.114 17.889 8.293 17.743 7.545 17.449C6.83259 17.1633 6.18353 16.7399 5.635 16.203C5.10002 15.6743 4.67398 15.0458 4.381 14.353C4.07671 13.624 3.92296 12.841 3.929 12.051C3.929 11.23 4.079 10.467 4.381 9.761C4.67179 9.06383 5.09802 8.43128 5.635 7.9C6.18164 7.3642 6.83145 6.94505 7.545 6.668C8.293 6.365 9.115 6.212 10.008 6.212ZM10.008 9C9.59 9 9.192 9.078 8.813 9.234C8.443 9.381 8.118 9.591 7.836 9.864C7.5524 10.1409 7.3249 10.4699 7.166 10.833C6.9982 11.2169 6.91368 11.632 6.918 12.051C6.918 12.491 7 12.897 7.166 13.269C7.4855 13.9996 8.0759 14.5778 8.813 14.882C9.192 15.029 9.59 15.102 10.008 15.102C10.426 15.102 10.82 15.029 11.189 14.882C11.569 14.726 11.899 14.511 12.181 14.237C12.4719 13.9635 12.7048 13.6343 12.866 13.269C13.0337 12.885 13.1182 12.47 13.114 12.051C13.114 11.611 13.031 11.205 12.866 10.833C12.7051 10.4676 12.4721 10.1383 12.181 9.865C11.8965 9.58988 11.559 9.37553 11.189 9.235C10.8156 9.07763 10.4132 8.99768 10.008 9Z" fill="#D81B60"/>
</svg>

<svg fill="none" viewBox="0 0 24 24" xmlns="http://www.w3.org/2000/svg"><path d="M10.386 1.507c-2.4-.083-4.8.666-6.786 2.249l1.324.75c1.573-1.167 3.559-1.666 5.462-1.583z" fill="#2979ff"/><path d="M17.42 4.67c-1.654-1.747-3.806-2.83-6.123-3.08v1.416a9.306 9.306 0 0 1 5.13 2.665l.994-1z" fill="#448aff"/><path d="M20.4 11.5c-.083-2.165-.91-4.33-2.317-6.162l-.993 1c1.158 1.582 1.82 3.33 1.903 5.163z" fill="#7e57c2"/><path d="M18.083 18.663c1.407-1.832 2.234-3.998 2.317-6.163h-1.407c-.082 1.832-.745 3.58-1.903 5.163z" fill="#ab47bc"/><path d="M11.297 22.41c2.234-.25 4.469-1.332 6.124-3.081l-.993-1c-1.407 1.5-3.228 2.416-5.131 2.666z" fill="#d81b60"/><path d="M3.6 20.245a10.275 10.275 0 0 0 6.786 2.248v-1.415c-1.903.083-3.807-.417-5.462-1.583z" fill="#f50057"/><path d="M10.008 6.212a6.47 6.47 0 0 1 2.45.455 5.62 5.62 0 0 1 1.924 1.232 5.755 5.755 0 0 1 1.72 4.152c0 .822-.15 1.59-.452 2.303a5.802 5.802 0 0 1-3.193 3.095 6.63 6.63 0 0 1-2.449.44c-.894 0-1.715-.146-2.463-.44a5.836 5.836 0 0 1-1.91-1.246 5.75 5.75 0 0 1-1.254-1.85 5.86 5.86 0 0 1-.452-2.302c0-.821.15-1.584.452-2.29A5.71 5.71 0 0 1 5.635 7.9a5.65 5.65 0 0 1 1.91-1.232c.748-.303 1.57-.455 2.463-.455zm0 2.788c-.418 0-.816.078-1.195.234-.37.147-.695.357-.977.63a3.08 3.08 0 0 0-.67.969 2.965 2.965 0 0 0-.248 1.218c0 .44.082.846.248 1.218a3.08 3.08 0 0 0 1.647 1.613c.379.147.777.22 1.195.22s.812-.073 1.181-.22c.38-.156.71-.371.992-.645a2.98 2.98 0 0 0 .685-.968 2.97 2.97 0 0 0 .248-1.218c0-.44-.083-.846-.248-1.218a2.97 2.97 0 0 0-.685-.968 2.917 2.917 0 0 0-.992-.63A2.994 2.994 0 0 0 10.009 9z" fill="#eceff1"/></svg>
